X:51
T:Downfall of Paris
M:2/4
Q:1/4=100
L:1/16
K:D
%%MIDI channel 1
%%MIDI program 72
%%MIDI transpose 8
%%MIDI grace 1/8
%%MIDI ratio 3 1
(3(ABc)|:d2de d2de|d2d2 gfed|e2ef e2ef|e2e2 agfe|[1 f2fg f2fg|f2f2 bagf|e2ef e2ef|
efge cABc:|[2 fefg abag|fefg abag|fafd egec|d2f2d2|:f2|a6 a2|a2f2 b2a2|
g2gf g2gf|g2gf g4|g6 g2|g2e2 a2g2|f2fe f2fe|f2fe fgaf|d2de d2de|d2d2 gfed|
e2ef e2ef|e2e2 agfe|fefg abag|fefg abag|fafd egec|d2f2d2::
A2|ABcd dcBA|FGAB AGFE|D2df e2eg|f2f2 e4|ABcd dcBA|FGAB AGFE|D2 df e2eg|f2e2d2::
d2|cAdA eAfA|gAfA eAdA|cAdA eAfA|gAfA e4|ABcd dcBA|FGAB AGFE|D2 df e2eg|f2e2d2:|

